static/assets/images/icons/to-right.svg

<svg width="256" height="256" viewBox="0 0 256 256" fill="none" xmlns="http://www.w3.org/2000/svg">
<path fill-rule="evenodd" clip-rule="evenodd" d="M42.2501 141.039C31.4642 138.032 30.7419 121.131 41.2376 117.23C42.8641 116.625 44.6904 116.263 46.7321 116.263H182.232L150.709 79.5919C148.371 77.2474 147.058 74.0675 147.058 70.7518C147.058 67.4361 148.371 64.2562 150.709 61.9117C153.047 59.5672 156.217 58.25 159.523 58.25C162.829 58.25 166 59.5672 168.338 61.9117L218.826 120.266C223.465 125.628 223.381 133.607 218.63 138.871L168.338 194.588C166 196.933 162.829 198.25 159.523 198.25C156.217 198.25 153.047 196.933 150.709 194.588C148.371 192.244 147.058 189.064 147.058 185.748C147.058 182.433 148.371 179.253 150.709 176.908L182.232 141.641H46.7321C45.1103 141.641 43.6181 141.421 42.2501 141.039Z" fill="black"/>
</svg>

<svg xmlns="http://www.w3.org/2000/svg" fill="none" viewBox="0 0 256 256"><path fill="#000" fill-rule="evenodd" d="M42.25 141.039c-10.786-3.007-11.508-19.908-1.012-23.809a15.6 15.6 0 0 1 5.494-.967h135.5l-31.523-36.671a12.52 12.52 0 0 1-3.651-8.84c0-3.316 1.313-6.496 3.651-8.84a12.45 12.45 0 0 1 8.814-3.662 12.45 12.45 0 0 1 8.815 3.662l50.488 58.354a14.05 14.05 0 0 1-.196 18.605l-50.292 55.717a12.45 12.45 0 0 1-8.815 3.662 12.45 12.45 0 0 1-8.814-3.662 12.52 12.52 0 0 1-3.651-8.84 12.52 12.52 0 0 1 3.651-8.84l31.523-35.267h-135.5a16.6 16.6 0 0 1-4.482-.602" clip-rule="evenodd"/></svg>
